modules/hawcons-stroke/icons/icon-142-box.svg

<?xml version="1.0" encoding="UTF-8" standalone="no"?>
<svg width="32px" height="32px" viewBox="0 0 32 32" version="1.1" xmlns="http://www.w3.org/2000/svg" xmlns:xlink="http://www.w3.org/1999/xlink" xmlns:sketch="http://www.bohemiancoding.com/sketch/ns">
    <!-- Generator: Sketch 3.0.3 (7891) - http://www.bohemiancoding.com/sketch -->
    <title>icon 142 box</title>
    <desc>Created with Sketch.</desc>
    <defs></defs>
    <g id="Page-1" stroke="none" stroke-width="1" fill="none" fill-rule="evenodd" sketch:type="MSPage">
        <g id="icon-142-box" sketch:type="MSArtboardGroup" fill="#929292">
            <path d="M4,10.5 L4,10 L9,2 L24,2 L29,10 L29,10.5 L29,14.5 L29,30 L4,30 L4,14.5 L4,10.5 L4,10.5 Z M5.22497559,10 L9.59997559,3 L23.4000244,3 L27.7750244,10 L5.22497559,10 L5.22497559,10 Z M5,15 L5,29 L28,29 L28,15 L5,15 L5,15 Z M13.9973917,20 C12.8942627,20 12,20.8877296 12,22 C12,23.1045695 12.8958578,24 13.9973917,24 L19.0026083,24 C20.1057373,24 21,23.1122704 21,22 C21,20.8954305 20.1041422,20 19.0026083,20 L13.9973917,20 L13.9973917,20 Z M14.0029293,21 C13.4490268,21 13,21.4438648 13,22 C13,22.5522847 13.4378814,23 14.0029293,23 L18.9970707,23 C19.5509732,23 20,22.5561352 20,22 C20,21.4477153 19.5621186,21 18.9970707,21 L14.0029293,21 L14.0029293,21 Z M5,11 L5,14 L28,14 L28,11 L5,11 L5,11 Z" id="box" sketch:type="MSShapeGroup"></path>
        </g>
    </g>
</svg>

<svg width="32" height="32" viewBox="0 0 32 32" xmlns="http://www.w3.org/2000/svg"><path d="M4 10.5V10l5-8h15l5 8v20H4V10.5zm1.225-.5L9.6 3h13.8l4.375 7H5.225zM5 15v14h23V15H5zm8.997 5A1.994 1.994 0 0 0 12 22a2 2 0 0 0 1.997 2h5.006A1.994 1.994 0 0 0 21 22a2 2 0 0 0-1.997-2h-5.006zm.006 1A.999.999 0 0 0 13 22c0 .552.438 1 1.003 1h4.994A.999.999 0 0 0 20 22c0-.552-.438-1-1.003-1h-4.994zM5 11v3h23v-3H5z" fill="#929292" fill-rule="evenodd"/></svg>
